gtk-icons/Papirus-GTK/16x16/actions/resource-group-new.svg

<?xml version="1.0" encoding="UTF-8" standalone="no"?>
<!-- Created with Inkscape (http://www.inkscape.org/) -->

<svg
   xmlns:osb="http://www.openswatchbook.org/uri/2009/osb"
   xmlns:dc="http://purl.org/dc/elements/1.1/"
   xmlns:cc="http://creativecommons.org/ns#"
   xmlns:rdf="http://www.w3.org/1999/02/22-rdf-syntax-ns#"
   xmlns:svg="http://www.w3.org/2000/svg"
   xmlns="http://www.w3.org/2000/svg"
   xmlns:sodipodi="http://sodipodi.sourceforge.net/DTD/sodipodi-0.dtd"
   xmlns:inkscape="http://www.inkscape.org/namespaces/inkscape"
   sodipodi:docname="resource-group-new.svg"
   inkscape:export-filename="/home/sam/source-symbolic.png"
   inkscape:export-xdpi="270"
   inkscape:export-ydpi="270"
   height="16"
   id="svg7384"
   style="enable-background:new"
   version="1.1"
   inkscape:version="0.91 r13725"
   width="16.000214">
  <sodipodi:namedview
     inkscape:bbox-nodes="true"
     inkscape:bbox-paths="false"
     bordercolor="#666666"
     borderlayer="false"
     borderopacity="1"
     inkscape:current-layer="g6058"
     inkscape:cx="-1.4251261"
     inkscape:cy="0.54298527"
     gridtolerance="10"
     inkscape:guide-bbox="true"
     guidetolerance="10"
     id="namedview88"
     inkscape:object-nodes="true"
     inkscape:object-paths="true"
     objecttolerance="10"
     pagecolor="#f7f7f7"
     inkscape:pageopacity="1"
     inkscape:pageshadow="2"
     showborder="true"
     showgrid="false"
     showguides="true"
     inkscape:showpageshadow="false"
     inkscape:snap-bbox="true"
     inkscape:snap-bbox-edge-midpoints="false"
     inkscape:snap-bbox-midpoints="true"
     inkscape:snap-center="false"
     inkscape:snap-global="true"
     inkscape:snap-grids="true"
     inkscape:snap-intersection-paths="true"
     inkscape:snap-midpoints="true"
     inkscape:snap-nodes="true"
     inkscape:snap-object-midpoints="true"
     inkscape:snap-others="true"
     inkscape:snap-page="false"
     inkscape:snap-smooth-nodes="true"
     inkscape:snap-to-guides="true"
     inkscape:window-height="847"
     inkscape:window-maximized="1"
     inkscape:window-width="1600"
     inkscape:window-x="0"
     inkscape:window-y="30"
     inkscape:zoom="9.95">
    <inkscape:grid
       color="#000000"
       dotted="false"
       empcolor="#0800ff"
       empopacity="0.4627451"
       empspacing="4"
       enabled="true"
       id="grid4866"
       opacity="0.16470588"
       originx="-424"
       originy="-175.00336"
       snapvisiblegridlinesonly="true"
       spacingx="0.25px"
       spacingy="0.25px"
       type="xygrid"
       visible="true" />
  </sodipodi:namedview>
  <metadata
     id="metadata90">
    <rdf:RDF>
      <cc:Work
         rdf:about="">
        <dc:format>image/svg+xml</dc:format>
        <dc:type
           rdf:resource="http://purl.org/dc/dcmitype/StillImage" />
        <dc:title>Paper Symbolic Icon Theme</dc:title>
      </cc:Work>
    </rdf:RDF>
  </metadata>
  <title
     id="title8473">Paper Symbolic Icon Theme</title>
  <defs
     id="defs7386">
    <linearGradient
       id="linearGradient5606"
       osb:paint="solid">
      <stop
         id="stop5608"
         offset="0"
         style="stop-color:#000000;stop-opacity:1;" />
    </linearGradient>
    <filter
       inkscape:collect="always"
       id="filter7554"
       style="color-interpolation-filters:sRGB">
      <feBlend
         inkscape:collect="always"
         id="feBlend7556"
         in2="BackgroundImage"
         mode="darken" />
    </filter>
  </defs>
  <g
     inkscape:groupmode="layer"
     id="layer9"
     inkscape:label="status"
     style="display:inline"
     transform="translate(-665.0002,-41.996643)" />
  <g
     inkscape:groupmode="layer"
     id="layer10"
     inkscape:label="devices"
     style="display:inline;filter:url(#filter7554)"
     transform="translate(-665.0002,-41.996643)" />
  <g
     inkscape:groupmode="layer"
     id="layer1"
     inkscape:label="places"
     style="display:inline"
     transform="translate(-424,-658.99664)" />
  <g
     inkscape:groupmode="layer"
     id="layer14"
     inkscape:label="mimetypes"
     style="display:inline"
     transform="translate(-665.0002,-41.996643)" />
  <g
     inkscape:groupmode="layer"
     id="layer15"
     inkscape:label="emblems"
     style="display:inline"
     transform="translate(-665.0002,-41.996643)" />
  <g
     inkscape:groupmode="layer"
     id="g71291"
     inkscape:label="emotes"
     style="display:inline"
     transform="translate(-665.0002,-41.996643)" />
  <g
     inkscape:groupmode="layer"
     id="layer2"
     inkscape:label="categories"
     style="display:inline"
     transform="translate(-424,-508.99664)" />
  <g
     inkscape:groupmode="layer"
     id="g6058"
     inkscape:label="apps"
     style="display:inline"
     transform="translate(-424,-508.99664)">
    <g
       id="g4149"
       style="fill:#000000;fill-opacity:1;opacity:0.5">
      <path
         style="color:#000000;font-style:normal;font-variant:normal;font-weight:normal;font-stretch:normal;font-size:medium;line-height:normal;font-family:Sans;-inkscape-font-specification:Sans;text-indent:0;text-align:start;text-decoration:none;text-decoration-line:none;letter-spacing:normal;word-spacing:normal;text-transform:none;direction:ltr;block-progression:tb;writing-mode:lr-tb;baseline-shift:baseline;text-anchor:start;display:inline;overflow:visible;visibility:visible;fill:#000000;fill-opacity:1;stroke:none;stroke-width:2;marker:none;enable-background:accumulate"
         d="M 6,2 C 4.34314,2 3,3.3432 3,5 3,6.6568 4.34314,8 6,8 7.65686,8 9,6.6568 9,5 9,3.3432 7.65686,2 6,2 Z m 5,1.9511719 c -0.38828,0 -0.753314,0.089301 -1.0839844,0.2382812 C 9.9706156,4.4515031 10,4.72254 10,5 10,6.10211 9.5457762,7.1041881 8.8164062,7.8300781 9.2767064,8.5337681 10.07945,9.0039062 11,9.0039062 c 1.43269,0 2.59375,-1.1302606 2.59375,-2.5253906 0,-1.39513 -1.16106,-2.5273437 -2.59375,-2.5273437 z M 6,10 c -6.00023,0.0034 -6,4.003906 -6,4.003906 l 0,1 c 0.88051786,0.0026 13.516511,-0.002 10,-0.0039 -0.5522619,-5.5e-5 -0.9999448,-0.447738 -1,-1 l 0,-2 c 5.52e-5,-0.552262 0.4477381,-0.999945 1,-1 l 0.154297,0 C 9.2657466,10.426788 7.9550862,9.9990224 6,10 Z m 6,0 0,2 -2,0 0,2 2,0 0,2 2,0 0,-2 2,0 0,-2 -2,0 0,-2 z"
         transform="translate(424,508.99664)"
         id="path6174-9"
         inkscape:connector-curvature="0"
         sodipodi:nodetypes="sssssscscssscccccccccccccccccccccc" />
    </g>
    <g
       id="layer9-3"
       inkscape:label="status"
       style="display:inline"
       transform="translate(-10.14497,489.90409)" />
    <g
       id="layer1-9"
       inkscape:label="places"
       style="display:inline"
       transform="translate(230.85523,-127.09591)" />
    <g
       id="layer14-9"
       inkscape:label="mimetypes"
       style="display:inline"
       transform="translate(-10.14497,489.90409)" />
    <g
       id="layer15-1"
       inkscape:label="emblems"
       style="display:inline"
       transform="translate(-10.14497,489.90409)" />
    <g
       id="g71291-7"
       inkscape:label="emotes"
       style="display:inline"
       transform="translate(-10.14497,489.90409)" />
    <g
       id="layer2-1"
       inkscape:label="categories"
       style="display:inline"
       transform="translate(230.85523,22.90409)" />
    <g
       transform="translate(59.74952,-457.38268)"
       style="fill:#333333"
       inkscape:label="emblem-important"
       id="g6718" />
    <g
       id="layer12-5"
       inkscape:label="actions"
       style="display:inline"
       transform="translate(-10.14497,489.90409)" />
  </g>
  <g
     inkscape:groupmode="layer"
     id="layer12"
     inkscape:label="actions"
     style="display:inline"
     transform="translate(-665.0002,-41.996643)" />
</svg>

<?xml version="1.0" encoding="UTF-8" standalone="no"?>
<!-- Created with Inkscape (http://www.inkscape.org/) -->
<svg id="svg7384" xmlns:rdf="http://www.w3.org/1999/02/22-rdf-syntax-ns#" style="enable-background:new" xmlns="http://www.w3.org/2000/svg" xmlns:osb="http://www.openswatchbook.org/uri/2009/osb" height="16" width="16" version="1.1" xmlns:cc="http://creativecommons.org/ns#" xmlns:dc="http://purl.org/dc/elements/1.1/">
 <metadata id="metadata90">
  <rdf:RDF>
   <cc:Work rdf:about="">
    <dc:format>image/svg+xml</dc:format>
    <dc:type rdf:resource="http://purl.org/dc/dcmitype/StillImage"/>
    <dc:title>Paper Symbolic Icon Theme</dc:title>
   </cc:Work>
  </rdf:RDF>
 </metadata>
 <title id="title8473">Paper Symbolic Icon Theme</title>
 <defs id="defs7386">
  <filter id="filter7554" style="color-interpolation-filters:sRGB">
   <feBlend id="feBlend7556" in2="BackgroundImage" mode="darken"/>
  </filter>
 </defs>
 <g id="g6058" transform="translate(-424 -509)">
  <g id="g4149" opacity=".5">
   <path id="path6174-9" style="color:#000000;text-indent:0;block-progression:tb;text-decoration-line:none;enable-background:accumulate;text-transform:none" d="m6 2c-1.6569 0-3 1.3432-3 3s1.3431 3 3 3 3-1.3432 3-3-1.3431-3-3-3zm5 1.9512c-0.38828 0-0.75331 0.089301-1.084 0.23828 0.0546 0.262 0.084 0.533 0.084 0.8105 0 1.1021-0.4542 2.1042-1.1836 2.8301 0.4603 0.7037 1.2626 1.1738 2.1836 1.1738 1.4327 0 2.5938-1.1303 2.5938-2.5254s-1.1611-2.5273-2.5938-2.5273zm-5 6.0488c-6.0002 0.0034-6 4.0039-6 4.0039v1c0.88052 0.0026 13.517-0.002 10-0.0039-0.55226-0.000055-0.99994-0.44774-1-1v-2c0.0000552-0.55226 0.44774-0.99994 1-1h0.1543c-0.8883-0.573-2.1989-1.001-4.154-1zm6 0v2h-2v2h2v2h2v-2h2v-2h-2v-2z" transform="translate(424 509)"/>
  </g>
 </g>
</svg>
